static/icons/chaingraph_logo-d-footer-m.svg

<?xml version="1.0" encoding="UTF-8"?>
<svg width="269px" height="198px" viewBox="0 0 269 198" version="1.1" xmlns="http://www.w3.org/2000/svg" xmlns:xlink="http://www.w3.org/1999/xlink">
    <!-- Generator: Sketch 64 (93537) - https://sketch.com -->
    <title>Untitled</title>
    <desc>Created with Sketch.</desc>
    <g id="Page-1" stroke="none" stroke-width="1" fill="none" fill-rule="evenodd">
        <g id="Capa-1">
            <g id="Group" opacity="0.5" transform="translate(85.000000, 4.000000)" stroke="#04BDAF" stroke-linecap="round" stroke-width="2.27">
                <polyline id="Path" points="45.567 104.535 0.5611 78.5654 0.5611 73.9927 0.5611 36.983"></polyline>
                <polyline id="Path" points="0.5612 26.6027 45.567 0.62134 46.533 1.18376 48.648 2.39418 90.561 26.6027 90.561 78.5654 55.397 98.861"></polyline>
                <polyline id="Path" points="0.5611 26.6024 45.567 52.7427 81.171 32.0554"></polyline>
                <line x1="45.567" y1="104.534" x2="45.567" y2="52.7426" id="Path"></line>
            </g>
            <polyline id="Path" stroke="#911C81" stroke-width="2.27" stroke-linecap="round" points="139.847 108.535 94.841 82.5657 94.841 77.9929 94.841 40.9833"></polyline>
            <polyline id="Path" stroke="#911C81" stroke-width="2.27" stroke-linecap="round" points="94.841 30.6027 139.847 4.62134 140.813 5.18376 142.928 6.39418 184.84 30.6027 184.84 82.5654 149.017 103.24"></polyline>
            <polyline id="Path" stroke="#911C81" stroke-width="2.27" stroke-linecap="round" points="94.841 30.6027 139.847 56.7429 175.45 36.0557"></polyline>
            <line x1="139.847" y1="108.535" x2="139.847" y2="56.7434" id="Path" stroke="#911C81" stroke-width="2.27" stroke-linecap="round"></line>
            <path d="M99.4627638,82.8958 C99.4578,83.8088 99.1827,84.7 98.6719,85.4568 C98.1612,86.2136 97.4377,86.8021 96.5928,87.1482 C95.7479,87.4942 94.8194,87.5823 93.9245,87.4012 C93.0296,87.2201 92.2084,86.778 91.5645,86.1307 C90.9206,85.4834 90.4829,84.6599 90.3065,83.7641 C90.1302,82.8682 90.2231,81.9402 90.5736,81.0972 C90.9241,80.2541 91.5165,79.5337 92.276,79.027 C93.0354,78.5202 93.928,78.2497999 94.841,78.2497999 C95.45,78.2497 96.053,78.3701 96.6153,78.6039 C97.1776,78.8377 97.6882,79.1803 98.1177,79.612 C98.5472,80.0438 98.8871,80.5562 99.1179,81.1197 C99.3487,81.6832 99.4659,82.2869 99.4627638,82.8958 Z" id="Path" fill="#911C81" fill-rule="nonzero"></path>
            <path d="M144.456025,55.5697 C144.459,56.4848 144.189,57.3801 143.682,58.142 C143.176,58.9039 142.454,59.4981 141.609,59.8494 C140.764,60.2007 139.834,60.2933 138.936,60.1154 C138.038,59.9374 137.214,59.497 136.567,58.8499 C135.92,58.2028 135.479,57.3782 135.301,56.4806 C135.123,55.5829 135.216,54.6527 135.567,53.8077 C135.918,52.9627 136.513,52.241 137.275,51.7341 C138.037,51.2272 138.932,50.9579 139.847,50.9602841 C141.069,50.9602841 142.242,51.446 143.106,52.3104 C143.971,53.1748 144.456025,54.3473 144.456025,55.5697 Z" id="Path" fill="#911C81" fill-rule="nonzero"></path>
            <path d="M189.462025,82.5657 C189.462025,83.4798 189.191,84.3733 188.683,85.1334 C188.175,85.8934 187.454,86.4858 186.609,86.8356 C185.765,87.1854 184.835,87.2769 183.939,87.0985 C183.042,86.9202 182.219,86.4801 181.573,85.8337 C180.926,85.1874 180.486,84.3639 180.308,83.4674 C180.129,82.5709 180.221,81.6416 180.571,80.7971 C180.92,79.9526 181.513,79.2308 182.273,78.723 C183.033,78.2152 183.926,77.944084 184.84,77.944084 C185.448,77.9425 186.05,78.0609 186.611,78.2926 C187.172,78.5243 187.683,78.8647 188.112,79.2942 C188.542,79.7236 188.882,80.2338 189.114,80.7952 C189.345,81.3567 189.464,81.9584 189.462025,82.5657 Z" id="Path" fill="#911C81" fill-rule="nonzero"></path>
            <path d="M144.456,4.62164 C144.456,5.53623 144.185,6.43026 143.677,7.19054 C143.168,7.95083 142.446,8.54318 141.6,8.89262 C140.755,9.24206 139.825,9.33286 138.928,9.15354 C138.032,8.97422 137.208,8.53284 136.562,7.88527 C135.916,7.2377 135.477,6.41307 135.3,5.51575 C135.123,4.61844 135.217,3.68881 135.568,2.84453 C135.92,2.00026 136.514,1.27931 137.276,0.772949 C138.038,0.266592 138.932,-0.00240337 139.847,2.9236169e-11 C141.07,0.00325326 142.243,0.491601 143.107,1.35797 C143.971,2.22434 144.456,3.39802 144.456,4.62164 Z" id="Path" fill="#911C81" fill-rule="nonzero"></path>
            <path d="M17.8752,189.068 C12.6443,189.068 8.34867,187.266 4.98842,183.664 C1.66281,180.026 0,175.419 0,169.842 C0,164.23 1.62816,159.588 4.88449,155.916 C8.14082,152.244 12.4537,150.408 17.8232,150.408 C22.2574,150.408 25.8081,151.585 28.4756,153.941 C31.1776,156.262 32.7365,159.259 33.1522,162.931 L25.6696,162.931 C25.3232,161.025 24.4571,159.518 23.0714,158.41 C21.7204,157.301 19.971,156.747 17.8232,156.747 C14.5322,156.747 12.0207,157.96 10.2886,160.384 C8.55652,162.809 7.69048,165.962 7.69048,169.842 C7.69048,173.687 8.60849,176.822 10.4445,179.247 C12.3152,181.672 14.792,182.884 17.8752,182.884 C20.0576,182.884 21.8763,182.295 23.3312,181.118 C24.7862,179.905 25.6349,178.312 25.8774,176.337 L33.2561,176.337 C33.0483,179.836 31.6799,182.763 29.1511,185.119 C26.3451,187.751 22.5864,189.068 17.8752,189.068 Z" id="Path" fill="#FFFFFF" fill-rule="nonzero"></path>
            <path d="M43.6275,151.135 L43.6275,165.113 L43.7834,165.113 C44.788,163.658 45.8793,162.602 47.0571,161.943 C48.2696,161.25 49.7591,160.904 51.5259,160.904 C54.2626,160.904 56.4797,161.839 58.1771,163.71 C59.8745,165.546 60.7233,167.936 60.7233,170.881 L60.7233,188.288 L53.6563,188.288 L53.6563,171.92 C53.6563,170.465 53.2406,169.287 52.4092,168.387 C51.6125,167.486 50.4866,167.036 49.0317,167.036 C47.4728,167.036 46.1737,167.607 45.1345,168.75 C44.1299,169.894 43.6275,171.366 43.6275,173.167 L43.6275,188.288 L36.5606,188.288 L36.5606,151.135 L43.6275,151.135 Z" id="Path" fill="#FFFFFF" fill-rule="nonzero"></path>
            <path d="M81.8632,188.288 C81.5167,187.838 81.2396,186.851 81.0318,185.327 L80.9278,185.327 C80.1657,186.47 79.1957,187.353 78.0179,187.977 C76.8401,188.6 75.1946,188.912 73.0815,188.912 C70.2755,188.912 68.0238,188.202 66.3263,186.781 C64.6289,185.361 63.7801,183.352 63.7801,180.754 C63.7801,178.052 64.7155,176.077 66.5861,174.83 C68.4568,173.548 71.0896,172.665 74.4845,172.18 C76.9787,171.834 78.6761,171.487 79.5768,171.141 C80.4775,170.76 80.9278,170.101 80.9278,169.166 C80.9278,168.196 80.5468,167.434 79.7847,166.88 C79.0225,166.291 77.914,165.996 76.459,165.996 C73.2374,165.996 71.5226,167.244 71.3147,169.738 L65.0272,169.738 C65.1312,167.209 66.1531,165.113 68.093,163.45 C70.033,161.787 72.839,160.956 76.511,160.956 C83.9936,160.956 87.7349,164.23 87.7349,170.777 L87.7349,184.339 C87.7349,186.348 88.0467,187.578 88.6703,188.029 L88.6703,188.288 L81.8632,188.288 Z M74.7962,183.975 C76.7362,183.975 78.2604,183.473 79.3689,182.469 C80.5121,181.464 81.0837,180.269 81.0837,178.883 L81.0837,174.882 C80.3216,175.332 78.6761,175.852 76.1473,176.441 C74.138,176.891 72.7177,177.411 71.8863,178 C71.0549,178.554 70.6392,179.42 70.6392,180.598 C70.6392,182.85 72.0249,183.975 74.7962,183.975 Z" id="Shape" fill="#FFFFFF" fill-rule="nonzero"></path>
            <path d="M92.2277,188.288 L92.2277,161.632 L99.2946,161.632 L99.2946,188.288 L92.2277,188.288 Z M92.2277,157.475 L92.2277,151.135 L99.2946,151.135 L99.2946,157.475 L92.2277,157.475 Z" id="Shape" fill="#FFFFFF" fill-rule="nonzero"></path>
            <path d="M110.759,161.632 L110.759,165.269 L110.915,165.269 C112.751,162.359 115.384,160.904 118.813,160.904 C121.55,160.904 123.767,161.839 125.465,163.71 C127.162,165.546 128.011,167.936 128.011,170.881 L128.011,188.288 L120.944,188.288 L120.944,171.92 C120.944,170.465 120.528,169.287 119.697,168.387 C118.9,167.486 117.774,167.036 116.319,167.036 C114.76,167.036 113.461,167.607 112.422,168.75 C111.417,169.894 110.915,171.366 110.915,173.167 L110.915,188.288 L103.848,188.288 L103.848,161.632 L110.759,161.632 Z" id="Path" fill="#FFFFFF" fill-rule="nonzero"></path>
            <path d="M160.167,188.288 L159.907,183.3 L159.803,183.3 C157.517,187.145 154.035,189.068 149.359,189.068 C143.92,189.068 139.572,187.266 136.316,183.664 C133.094,180.061 131.483,175.454 131.483,169.842 C131.483,163.468 133.51,158.41 137.563,154.669 C140.681,151.828 144.665,150.408 149.515,150.408 C154.053,150.408 157.673,151.533 160.375,153.785 C163.111,156.037 164.792,159.051 165.415,162.827 L158.036,162.827 C157.586,160.956 156.651,159.466 155.23,158.358 C153.81,157.215 151.957,156.643 149.67,156.643 C146.31,156.643 143.712,157.873 141.876,160.332 C140.075,162.792 139.174,165.962 139.174,169.842 C139.174,173.687 140.109,176.839 141.98,179.299 C143.885,181.758 146.414,182.988 149.566,182.988 C152.338,182.988 154.624,182.139 156.426,180.442 C158.227,178.71 159.128,176.753 159.128,174.57 L159.128,174.362 L150.19,174.362 L150.19,168.543 L165.831,168.543 L165.831,188.288 L160.167,188.288 Z" id="Path" fill="#FFFFFF" fill-rule="nonzero"></path>
            <path d="M177.334,161.632 L177.334,165.892 L177.49,165.892 C178.321,164.334 179.239,163.19 180.244,162.463 C181.249,161.701 182.513,161.32 184.037,161.32 C184.765,161.32 185.319,161.389 185.7,161.528 L185.7,167.711 L185.544,167.711 C183.154,167.469 181.231,167.988 179.776,169.27 C178.321,170.552 177.594,172.561 177.594,175.298 L177.594,188.288 L170.527,188.288 L170.527,161.632 L177.334,161.632 Z" id="Path" fill="#FFFFFF" fill-rule="nonzero"></path>
            <path d="M204.767,188.288 C204.421,187.838 204.144,186.851 203.936,185.327 L203.832,185.327 C203.07,186.47 202.1,187.353 200.922,187.977 C199.744,188.6 198.099,188.912 195.985,188.912 C193.179,188.912 190.928,188.202 189.23,186.781 C187.533,185.361 186.684,183.352 186.684,180.754 C186.684,178.052 187.619,176.077 189.49,174.83 C191.361,173.548 193.993,172.665 197.388,172.18 C199.883,171.834 201.58,171.487 202.481,171.141 C203.381,170.76 203.832,170.101 203.832,169.166 C203.832,168.196 203.451,167.434 202.689,166.88 C201.926,166.291 200.818,165.996 199.363,165.996 C196.141,165.996 194.427,167.244 194.219,169.738 L187.931,169.738 C188.035,167.209 189.057,165.113 190.997,163.45 C192.937,161.787 195.743,160.956 199.415,160.956 C206.898,160.956 210.639,164.23 210.639,170.777 L210.639,184.339 C210.639,186.348 210.951,187.578 211.574,188.029 L211.574,188.288 L204.767,188.288 Z M197.7,183.975 C199.64,183.975 201.164,183.473 202.273,182.469 C203.416,181.464 203.988,180.269 203.988,178.883 L203.988,174.882 C203.226,175.332 201.58,175.852 199.051,176.441 C197.042,176.891 195.622,177.411 194.79,178 C193.959,178.554 193.543,179.42 193.543,180.598 C193.543,182.85 194.929,183.975 197.7,183.975 Z" id="Shape" fill="#FFFFFF" fill-rule="nonzero"></path>
            <path d="M215.132,197.018 L215.132,161.632 L221.939,161.632 L221.939,164.957 L222.095,164.957 C224.069,162.255 226.685,160.904 229.941,160.904 C233.44,160.904 236.246,162.203 238.359,164.801 C240.472,167.399 241.529,170.794 241.529,174.986 C241.529,179.282 240.472,182.711 238.359,185.275 C236.246,187.803 233.457,189.068 229.993,189.068 C226.529,189.068 223.965,187.803 222.302,185.275 L222.199,185.275 L222.199,197.018 L215.132,197.018 Z M228.486,183.196 C230.287,183.196 231.708,182.486 232.747,181.066 C233.821,179.645 234.358,177.688 234.358,175.194 C234.358,172.526 233.855,170.431 232.851,168.906 C231.846,167.382 230.305,166.62 228.226,166.62 C226.113,166.62 224.554,167.417 223.55,169.01 C222.545,170.569 222.043,172.63 222.043,175.194 C222.043,177.653 222.597,179.611 223.705,181.066 C224.814,182.486 226.408,183.196 228.486,183.196 Z" id="Shape" fill="#FFFFFF" fill-rule="nonzero"></path>
            <path d="M251.884,151.135 L251.884,165.113 L252.04,165.113 C253.045,163.658 254.136,162.602 255.314,161.943 C256.526,161.25 258.016,160.904 259.783,160.904 C262.519,160.904 264.736,161.839 266.434,163.71 C268.131,165.546 268.98,167.936 268.98,170.881 L268.98,188.288 L261.913,188.288 L261.913,171.92 C261.913,170.465 261.497,169.287 260.666,168.387 C259.869,167.486 258.743,167.036 257.288,167.036 C255.73,167.036 254.43,167.607 253.391,168.75 C252.387,169.894 251.884,171.366 251.884,173.167 L251.884,188.288 L244.817,188.288 L244.817,151.135 L251.884,151.135 Z" id="Path" fill="#FFFFFF" fill-rule="nonzero"></path>
        </g>
    </g>
</svg>

<svg width="269" height="198" xmlns="http://www.w3.org/2000/svg"><g fill="none" fill-rule="evenodd"><g opacity=".5" stroke="#04BDAF" stroke-linecap="round" stroke-width="2.27"><path d="M130.567 108.535l-45.006-25.97V40.983M85.561 30.603L130.567 4.62l.966.563 2.115 1.21 41.913 24.209v51.962l-35.164 20.296"/><path d="M85.561 30.602l45.006 26.14 35.604-20.687M130.567 108.534V56.743"/></g><path stroke="#911C81" stroke-width="2.27" stroke-linecap="round" d="M139.847 108.535l-45.006-25.97V40.984M94.841 30.603L139.847 4.62l.966.563 2.115 1.21 41.912 24.209v51.962l-35.823 20.675"/><path stroke="#911C81" stroke-width="2.27" stroke-linecap="round" d="M94.841 30.603l45.006 26.14 35.603-20.687M139.847 108.535V56.743"/><path d="M99.463 82.896a4.623 4.623 0 11-9.246-.05 4.623 4.623 0 019.246.05zM144.456 55.57a4.617 4.617 0 01-2.847 4.28 4.622 4.622 0 11-1.762-8.89 4.609 4.609 0 014.609 4.61zM189.462 82.566a4.62 4.62 0 11-4.622-4.622 4.608 4.608 0 014.622 4.622zM144.456 4.622a4.624 4.624 0 01-2.856 4.27 4.622 4.622 0 112.856-4.27z" fill="#911C81" fill-rule="nonzero"/><path d="M17.875 189.068c-5.23 0-9.526-1.802-12.887-5.404C1.663 180.026 0 175.419 0 169.842c0-5.612 1.628-10.254 4.884-13.926 3.257-3.672 7.57-5.508 12.94-5.508 4.433 0 7.984 1.177 10.652 3.533 2.702 2.321 4.26 5.318 4.676 8.99H25.67c-.347-1.906-1.213-3.413-2.599-4.521-1.35-1.109-3.1-1.663-5.248-1.663-3.29 0-5.802 1.213-7.534 3.637-1.732 2.425-2.599 5.578-2.599 9.458 0 3.845.918 6.98 2.754 9.405 1.871 2.425 4.348 3.637 7.431 3.637 2.183 0 4.001-.589 5.456-1.766 1.455-1.213 2.304-2.806 2.546-4.781h7.38c-.209 3.499-1.577 6.426-4.106 8.782-2.806 2.632-6.565 3.949-11.276 3.949zM43.627 151.135v13.978h.156c1.005-1.455 2.096-2.511 3.274-3.17 1.213-.693 2.702-1.039 4.469-1.039 2.737 0 4.954.935 6.651 2.806 1.697 1.836 2.546 4.226 2.546 7.171v17.407h-7.067V171.92c0-1.455-.415-2.633-1.247-3.533-.797-.901-1.922-1.351-3.377-1.351-1.56 0-2.858.571-3.897 1.714-1.005 1.144-1.508 2.616-1.508 4.417v15.121h-7.066v-37.153h7.066zM81.863 188.288c-.346-.45-.623-1.437-.831-2.961h-.104a7.904 7.904 0 01-2.91 2.65c-1.178.623-2.823.935-4.936.935-2.806 0-5.058-.71-6.756-2.131-1.697-1.42-2.546-3.429-2.546-6.027 0-2.702.936-4.677 2.806-5.924 1.87-1.282 4.504-2.165 7.898-2.65 2.495-.346 4.192-.693 5.093-1.039.9-.381 1.35-1.04 1.35-1.975 0-.97-.38-1.732-1.142-2.286-.763-.589-1.871-.884-3.326-.884-3.222 0-4.936 1.248-5.144 3.742h-6.288c.104-2.529 1.126-4.625 3.066-6.288 1.94-1.663 4.746-2.494 8.418-2.494 7.483 0 11.224 3.274 11.224 9.821v13.562c0 2.009.312 3.239.935 3.69v.259h-6.807zm-7.067-4.313c1.94 0 3.464-.502 4.573-1.506 1.143-1.005 1.715-2.2 1.715-3.586v-4.001c-.762.45-2.408.97-4.937 1.559-2.009.45-3.43.97-4.26 1.559-.832.554-1.248 1.42-1.248 2.598 0 2.252 1.386 3.377 4.157 3.377zM92.228 188.288v-26.656h7.067v26.656h-7.067zm0-30.813v-6.34h7.067v6.34h-7.067zM110.759 161.632v3.637h.156c1.836-2.91 4.469-4.365 7.898-4.365 2.737 0 4.954.935 6.652 2.806 1.697 1.836 2.546 4.226 2.546 7.171v17.407h-7.067V171.92c0-1.455-.416-2.633-1.247-3.533-.797-.901-1.923-1.351-3.378-1.351-1.559 0-2.858.571-3.897 1.714-1.005 1.144-1.507 2.616-1.507 4.417v15.121h-7.067v-26.656h6.911zM160.167 188.288l-.26-4.988h-.104c-2.286 3.845-5.768 5.768-10.444 5.768-5.439 0-9.787-1.802-13.043-5.404-3.222-3.603-4.833-8.21-4.833-13.822 0-6.374 2.027-11.432 6.08-15.173 3.118-2.841 7.102-4.261 11.952-4.261 4.538 0 8.158 1.125 10.86 3.377 2.736 2.252 4.417 5.266 5.04 9.042h-7.379c-.45-1.871-1.385-3.361-2.806-4.469-1.42-1.143-3.273-1.715-5.56-1.715-3.36 0-5.958 1.23-7.794 3.689-1.801 2.46-2.702 5.63-2.702 9.51 0 3.845.935 6.997 2.806 9.457 1.905 2.459 4.434 3.689 7.586 3.689 2.772 0 5.058-.849 6.86-2.546 1.801-1.732 2.702-3.689 2.702-5.872v-.208h-8.938v-5.819h15.641v19.745h-5.664zM177.334 161.632v4.26h.156c.831-1.558 1.749-2.702 2.754-3.429 1.005-.762 2.269-1.143 3.793-1.143.728 0 1.282.069 1.663.208v6.183h-.156c-2.39-.242-4.313.277-5.768 1.559s-2.182 3.291-2.182 6.028v12.99h-7.067v-26.656h6.807zM204.767 188.288c-.346-.45-.623-1.437-.831-2.961h-.104a7.902 7.902 0 01-2.91 2.65c-1.178.623-2.823.935-4.937.935-2.806 0-5.057-.71-6.755-2.131-1.697-1.42-2.546-3.429-2.546-6.027 0-2.702.935-4.677 2.806-5.924 1.871-1.282 4.503-2.165 7.898-2.65 2.495-.346 4.192-.693 5.093-1.039.9-.381 1.351-1.04 1.351-1.975 0-.97-.381-1.732-1.143-2.286-.763-.589-1.871-.884-3.326-.884-3.222 0-4.936 1.248-5.144 3.742h-6.288c.104-2.529 1.126-4.625 3.066-6.288 1.94-1.663 4.746-2.494 8.418-2.494 7.483 0 11.224 3.274 11.224 9.821v13.562c0 2.009.312 3.239.935 3.69v.259h-6.807zm-7.067-4.313c1.94 0 3.464-.502 4.573-1.506 1.143-1.005 1.715-2.2 1.715-3.586v-4.001c-.762.45-2.408.97-4.937 1.559-2.009.45-3.429.97-4.261 1.559-.831.554-1.247 1.42-1.247 2.598 0 2.252 1.386 3.377 4.157 3.377zM215.132 197.018v-35.386h6.807v3.325h.156c1.974-2.702 4.59-4.053 7.846-4.053 3.499 0 6.305 1.299 8.418 3.897 2.113 2.598 3.17 5.993 3.17 10.185 0 4.296-1.057 7.725-3.17 10.289-2.113 2.528-4.902 3.793-8.366 3.793-3.464 0-6.028-1.265-7.691-3.793h-.103v11.743h-7.067zm13.354-13.822c1.801 0 3.222-.71 4.261-2.13 1.074-1.421 1.611-3.378 1.611-5.872 0-2.668-.503-4.763-1.507-6.288-1.005-1.524-2.546-2.286-4.625-2.286-2.113 0-3.672.797-4.676 2.39-1.005 1.559-1.507 3.62-1.507 6.184 0 2.459.554 4.417 1.662 5.872 1.109 1.42 2.703 2.13 4.781 2.13zM251.884 151.135v13.978h.156c1.005-1.455 2.096-2.511 3.274-3.17 1.212-.693 2.702-1.039 4.469-1.039 2.736 0 4.953.935 6.651 2.806 1.697 1.836 2.546 4.226 2.546 7.171v17.407h-7.067V171.92c0-1.455-.416-2.633-1.247-3.533-.797-.901-1.923-1.351-3.378-1.351-1.558 0-2.858.571-3.897 1.714-1.004 1.144-1.507 2.616-1.507 4.417v15.121h-7.067v-37.153h7.067z" fill="#FFF" fill-rule="nonzero"/></g></svg>
